static/img/kroki/2cf9e745cba1050e6ac699f744da3279.svg

<?xml version="1.0" encoding="us-ascii" standalone="no"?><svg xmlns="http://www.w3.org/2000/svg" xmlns:xlink="http://www.w3.org/1999/xlink" contentStyleType="text/css" height="152px" preserveAspectRatio="none" style="width:431px;height:152px;" version="1.1" viewBox="0 0 431 152" width="431px" zoomAndPan="magnify"><defs/><g><!--class gcp_instance--><g id="elem_gcp_instance"><rect codeLine="22" fill="#3D176E" height="39.7891" id="gcp_instance" rx="2.5" ry="2.5" style="stroke:#000D19;stroke-width:0.5;" width="149" x="7" y="106.79"/><ellipse cx="22" cy="126.6845" fill="#ADD1B2" rx="11" ry="11" style="stroke:#181818;stroke-width:1.0;"/><path d="M24.9688,132.3252 Q24.3906,132.622 23.75,132.7627 Q23.1094,132.9189 22.4063,132.9189 Q19.9063,132.9189 18.5781,131.2783 Q17.2656,129.622 17.2656,126.497 Q17.2656,123.372 18.5781,121.7158 Q19.9063,120.0595 22.4063,120.0595 Q23.1094,120.0595 23.75,120.2158 Q24.4063,120.372 24.9688,120.6689 L24.9688,123.3877 Q24.3438,122.8095 23.75,122.5439 Q23.1563,122.2627 22.5313,122.2627 Q21.1875,122.2627 20.5,123.3408 Q19.8125,124.4033 19.8125,126.497 Q19.8125,128.5908 20.5,129.6689 Q21.1875,130.7314 22.5313,130.7314 Q23.1563,130.7314 23.75,130.4658 Q24.3438,130.1845 24.9688,129.6064 L24.9688,132.3252 Z " fill="#000000"/><text fill="#D9B8FF" font-family="Helvetica" font-size="17" lengthAdjust="spacing" textLength="107" x="41" y="132.5698">gcp_instance</text></g><!--class gcp_instance_template--><g id="elem_gcp_instance_template"><rect codeLine="24" fill="#3D176E" height="39.7891" id="gcp_instance_template" rx="2.5" ry="2.5" style="stroke:#000D19;stroke-width:0.5;" width="234" x="190.5" y="106.79"/><ellipse cx="205.5" cy="126.6845" fill="#ADD1B2" rx="11" ry="11" style="stroke:#181818;stroke-width:1.0;"/><path d="M208.4688,132.3252 Q207.8906,132.622 207.25,132.7627 Q206.6094,132.9189 205.9063,132.9189 Q203.4063,132.9189 202.0781,131.2783 Q200.7656,129.622 200.7656,126.497 Q200.7656,123.372 202.0781,121.7158 Q203.4063,120.0595 205.9063,120.0595 Q206.6094,120.0595 207.25,120.2158 Q207.9063,120.372 208.4688,120.6689 L208.4688,123.3877 Q207.8438,122.8095 207.25,122.5439 Q206.6563,122.2627 206.0313,122.2627 Q204.6875,122.2627 204,123.3408 Q203.3125,124.4033 203.3125,126.497 Q203.3125,128.5908 204,129.6689 Q204.6875,130.7314 206.0313,130.7314 Q206.6563,130.7314 207.25,130.4658 Q207.8438,130.1845 208.4688,129.6064 L208.4688,132.3252 Z " fill="#000000"/><text fill="#D9B8FF" font-family="Helvetica" font-size="17" lengthAdjust="spacing" textLength="192" x="224.5" y="132.5698">gcp_instance_template</text></g><!--class gcp_machine_type--><g id="elem_gcp_machine_type"><rect codeLine="26" fill="#3D176E" height="39.7891" id="gcp_machine_type" rx="2.5" ry="2.5" style="stroke:#000D19;stroke-width:0.5;" width="197" x="96" y="7"/><ellipse cx="111" cy="26.8945" fill="#ADD1B2" rx="11" ry="11" style="stroke:#181818;stroke-width:1.0;"/><path d="M113.9688,32.5352 Q113.3906,32.832 112.75,32.9727 Q112.1094,33.1289 111.4063,33.1289 Q108.9063,33.1289 107.5781,31.4883 Q106.2656,29.832 106.2656,26.707 Q106.2656,23.582 107.5781,21.9258 Q108.9063,20.2695 111.4063,20.2695 Q112.1094,20.2695 112.75,20.4258 Q113.4063,20.582 113.9688,20.8789 L113.9688,23.5977 Q113.3438,23.0195 112.75,22.7539 Q112.1563,22.4727 111.5313,22.4727 Q110.1875,22.4727 109.5,23.5508 Q108.8125,24.6133 108.8125,26.707 Q108.8125,28.8008 109.5,29.8789 Q110.1875,30.9414 111.5313,30.9414 Q112.1563,30.9414 112.75,30.6758 Q113.3438,30.3945 113.9688,29.8164 L113.9688,32.5352 Z " fill="#000000"/><text fill="#D9B8FF" font-family="Helvetica" font-size="17" lengthAdjust="spacing" textLength="155" x="130" y="32.7798">gcp_machine_type</text></g><!--link gcp_machine_type to gcp_instance--><g id="link_gcp_machine_type_gcp_instance"><path codeLine="28" d="M172.17,47.22 C153.76,63.15 127.58,85.81 108.08,102.68 " fill="none" id="gcp_machine_type-to-gcp_instance" style="stroke:#1A83AF;stroke-width:2.0;"/><polygon fill="#1A83AF" points="104.78,106.41,114.205,103.5519,108.5632,103.1408,108.9743,97.4989,104.78,106.41" style="stroke:#1A83AF;stroke-width:2.0;"/></g><!--link gcp_machine_type to gcp_instance_template--><g id="link_gcp_machine_type_gcp_instance_template"><path codeLine="29" d="M216.83,47.22 C235.24,63.15 261.42,85.81 280.92,102.68 " fill="none" id="gcp_machine_type-to-gcp_instance_template" style="stroke:#1A83AF;stroke-width:2.0;"/><polygon fill="#1A83AF" points="284.22,106.41,280.0257,97.4989,280.4368,103.1408,274.795,103.5519,284.22,106.41" style="stroke:#1A83AF;stroke-width:2.0;"/></g><!--SRC=[bP9FQy904CNlVee5puAfj9fB8Gr8Uv5IUoj5njrPioJP3RDZnPP-zoRQofhuXrxV-p7lpJ2PKIYmh7WhIYoNIBxdSsCh82X5GkGsgIiSYRxMe4VZjZbrbgy2CoXHF6BnWMmaj8dNpCZSelVY9h0UGEOhSckhzkEPmFhQGii1bHRWVS9CPhbc3CgeU3dHkassX_P7AXhVOGTpf91-aU5mgAAuZLoDkhZtWPYRJnHHUBIPO-pKx4Jig8ij6o8esLdqpp_RyHcKCdObRWFjPT-9BDAHFiz0kKr3QoXy6ECP2HrlAqmxMs4yKNfy4duw1ylcSc8bguMndi5A55-zxnFoWkkdBe3RVWaoCxQswvITrH47R_qecOoIwVlW_cZaFz13-Wy0]--></g></svg>

<svg xmlns="http://www.w3.org/2000/svg" width="431" height="152" preserveAspectRatio="none" style="width:431px;height:152px"><rect width="149" height="39.789" x="7" y="106.79" fill="#3D176E" rx="2.5" ry="2.5" style="stroke:#000d19;stroke-width:.5"/><circle cx="22" cy="126.684" r="11" fill="#ADD1B2" style="stroke:#181818;stroke-width:1"/><path d="M24.969 132.325q-.578.297-1.219.438-.64.156-1.344.156-2.5 0-3.828-1.64-1.312-1.657-1.312-4.782t1.312-4.781q1.328-1.656 3.828-1.656.703 0 1.344.156.656.156 1.219.453v2.719q-.625-.579-1.219-.844-.594-.281-1.219-.281-1.343 0-2.031 1.078-.688 1.062-.688 3.156 0 2.094.688 3.172.688 1.062 2.031 1.062.625 0 1.219-.265.594-.281 1.219-.86v2.72Z"/><text x="41" y="132.57" fill="#D9B8FF" font-family="Helvetica" font-size="17" textLength="107">gcp_instance</text><rect width="234" height="39.789" x="190.5" y="106.79" fill="#3D176E" rx="2.5" ry="2.5" style="stroke:#000d19;stroke-width:.5"/><circle cx="205.5" cy="126.684" r="11" fill="#ADD1B2" style="stroke:#181818;stroke-width:1"/><path d="M208.469 132.325q-.578.297-1.219.438-.64.156-1.344.156-2.5 0-3.828-1.64-1.312-1.657-1.312-4.782t1.312-4.781q1.328-1.656 3.828-1.656.703 0 1.344.156.656.156 1.219.453v2.719q-.625-.579-1.219-.844-.594-.281-1.219-.281-1.344 0-2.031 1.078-.688 1.062-.688 3.156 0 2.094.688 3.172.688 1.062 2.031 1.062.625 0 1.219-.265.594-.281 1.219-.86v2.72Z"/><text x="224.5" y="132.57" fill="#D9B8FF" font-family="Helvetica" font-size="17" textLength="192">gcp_instance_template</text><rect width="197" height="39.789" x="96" y="7" fill="#3D176E" rx="2.5" ry="2.5" style="stroke:#000d19;stroke-width:.5"/><circle cx="111" cy="26.895" r="11" fill="#ADD1B2" style="stroke:#181818;stroke-width:1"/><path d="M113.969 32.535q-.578.297-1.219.438-.64.156-1.344.156-2.5 0-3.828-1.64-1.312-1.657-1.312-4.782t1.312-4.781q1.328-1.656 3.828-1.656.703 0 1.344.156.656.156 1.219.453v2.719q-.625-.578-1.219-.844-.594-.281-1.219-.281-1.344 0-2.031 1.078-.688 1.062-.688 3.156 0 2.094.688 3.172.688 1.062 2.031 1.062.625 0 1.219-.265.594-.281 1.219-.86v2.72Z"/><text x="130" y="32.78" fill="#D9B8FF" font-family="Helvetica" font-size="17" textLength="155">gcp_machine_type</text><path fill="none" d="M172.17 47.22c-18.41 15.93-44.59 38.59-64.09 55.46" style="stroke:#1a83af;stroke-width:2"/><path fill="#1A83AF" d="m104.78 106.41 9.425-2.858-5.642-.411.411-5.642-4.194 8.911z" style="stroke:#1a83af;stroke-width:2"/><path fill="none" d="M216.83 47.22c18.41 15.93 44.59 38.59 64.09 55.46" style="stroke:#1a83af;stroke-width:2"/><path fill="#1A83AF" d="m284.22 106.41-4.194-8.911.41 5.642-5.641.41 9.425 2.859z" style="stroke:#1a83af;stroke-width:2"/></svg>
